src/images/logo.svg

<svg width="652" height="152" viewBox="0 0 652 152" fill="none" xmlns="http://www.w3.org/2000/svg">
<path d="M233.184 96.432C229.296 96.432 225.816 95.592 222.744 93.912C219.72 92.232 217.344 89.928 215.616 87C213.888 84.024 213.024 80.664 213.024 76.92C213.024 73.176 213.888 69.84 215.616 66.912C217.344 63.936 219.72 61.632 222.744 60C225.816 58.32 229.296 57.48 233.184 57.48C236.64 57.48 239.712 58.176 242.4 59.568C245.136 60.96 247.248 62.976 248.736 65.616L243.48 69C242.28 67.176 240.792 65.808 239.016 64.896C237.24 63.984 235.272 63.528 233.112 63.528C230.616 63.528 228.36 64.08 226.344 65.184C224.376 66.288 222.816 67.872 221.664 69.936C220.56 71.952 220.008 74.28 220.008 76.92C220.008 79.608 220.56 81.984 221.664 84.048C222.816 86.064 224.376 87.624 226.344 88.728C228.36 89.832 230.616 90.384 233.112 90.384C235.272 90.384 237.24 89.928 239.016 89.016C240.792 88.104 242.28 86.736 243.48 84.912L248.736 88.224C247.248 90.864 245.136 92.904 242.4 94.344C239.712 95.736 236.64 96.432 233.184 96.432ZM273.466 96.432C269.674 96.432 266.266 95.592 263.242 93.912C260.218 92.232 257.842 89.928 256.114 87C254.434 84.024 253.594 80.664 253.594 76.92C253.594 73.176 254.434 69.84 256.114 66.912C257.842 63.936 260.218 61.632 263.242 60C266.266 58.32 269.674 57.48 273.466 57.48C277.258 57.48 280.642 58.32 283.618 60C286.642 61.632 288.994 63.936 290.674 66.912C292.402 69.84 293.266 73.176 293.266 76.92C293.266 80.664 292.402 84.024 290.674 87C288.994 89.928 286.642 92.232 283.618 93.912C280.642 95.592 277.258 96.432 273.466 96.432ZM273.466 90.384C275.914 90.384 278.098 89.832 280.018 88.728C281.986 87.576 283.522 85.992 284.626 83.976C285.73 81.912 286.282 79.56 286.282 76.92C286.282 74.28 285.73 71.952 284.626 69.936C283.522 67.872 281.986 66.288 280.018 65.184C278.098 64.08 275.914 63.528 273.466 63.528C271.018 63.528 268.81 64.08 266.842 65.184C264.922 66.288 263.386 67.872 262.234 69.936C261.13 71.952 260.578 74.28 260.578 76.92C260.578 79.56 261.13 81.912 262.234 83.976C263.386 85.992 264.922 87.576 266.842 88.728C268.81 89.832 271.018 90.384 273.466 90.384ZM323.201 57.48C328.049 57.48 331.889 58.896 334.721 61.728C337.601 64.512 339.041 68.616 339.041 74.04V96H332.129V74.832C332.129 71.136 331.241 68.352 329.465 66.48C327.689 64.608 325.145 63.672 321.833 63.672C318.089 63.672 315.137 64.776 312.977 66.984C310.817 69.144 309.737 72.264 309.737 76.344V96H302.825V57.84H309.449V63.6C310.841 61.632 312.713 60.12 315.065 59.064C317.465 58.008 320.177 57.48 323.201 57.48ZM373.289 93.768C372.281 94.632 371.033 95.304 369.545 95.784C368.057 96.216 366.521 96.432 364.937 96.432C361.097 96.432 358.121 95.4 356.009 93.336C353.897 91.272 352.841 88.32 352.841 84.48V63.528H346.361V57.84H352.841V49.488H359.753V57.84H370.697V63.528H359.753V84.192C359.753 86.256 360.257 87.84 361.265 88.944C362.321 90.048 363.809 90.6 365.729 90.6C367.841 90.6 369.641 90 371.129 88.8L373.289 93.768ZM395.542 57.48C400.822 57.48 404.854 58.776 407.638 61.368C410.47 63.96 411.886 67.824 411.886 72.96V96H405.334V90.96C404.182 92.736 402.526 94.104 400.366 95.064C398.254 95.976 395.734 96.432 392.806 96.432C388.534 96.432 385.102 95.4 382.51 93.336C379.966 91.272 378.694 88.56 378.694 85.2C378.694 81.84 379.918 79.152 382.366 77.136C384.814 75.072 388.702 74.04 394.03 74.04H404.974V72.672C404.974 69.696 404.11 67.416 402.382 65.832C400.654 64.248 398.11 63.456 394.75 63.456C392.494 63.456 390.286 63.84 388.126 64.608C385.966 65.328 384.142 66.312 382.654 67.56L379.774 62.376C381.742 60.792 384.094 59.592 386.83 58.776C389.566 57.912 392.47 57.48 395.542 57.48ZM393.958 91.104C396.598 91.104 398.878 90.528 400.798 89.376C402.718 88.176 404.11 86.496 404.974 84.336V79.008H394.318C388.462 79.008 385.534 80.976 385.534 84.912C385.534 86.832 386.278 88.344 387.766 89.448C389.254 90.552 391.318 91.104 393.958 91.104ZM441.52 96.432C437.632 96.432 434.152 95.592 431.08 93.912C428.056 92.232 425.68 89.928 423.952 87C422.224 84.024 421.36 80.664 421.36 76.92C421.36 73.176 422.224 69.84 423.952 66.912C425.68 63.936 428.056 61.632 431.08 60C434.152 58.32 437.632 57.48 441.52 57.48C444.976 57.48 448.048 58.176 450.736 59.568C453.472 60.96 455.584 62.976 457.072 65.616L451.816 69C450.616 67.176 449.128 65.808 447.352 64.896C445.576 63.984 443.608 63.528 441.448 63.528C438.952 63.528 436.696 64.08 434.68 65.184C432.712 66.288 431.152 67.872 430 69.936C428.896 71.952 428.344 74.28 428.344 76.92C428.344 79.608 428.896 81.984 430 84.048C431.152 86.064 432.712 87.624 434.68 88.728C436.696 89.832 438.952 90.384 441.448 90.384C443.608 90.384 445.576 89.928 447.352 89.016C449.128 88.104 450.616 86.736 451.816 84.912L457.072 88.224C455.584 90.864 453.472 92.904 450.736 94.344C448.048 95.736 444.976 96.432 441.52 96.432ZM487.969 93.768C486.961 94.632 485.713 95.304 484.225 95.784C482.737 96.216 481.201 96.432 479.617 96.432C475.777 96.432 472.801 95.4 470.689 93.336C468.577 91.272 467.521 88.32 467.521 84.48V63.528H461.041V57.84H467.521V49.488H474.433V57.84H485.377V63.528H474.433V84.192C474.433 86.256 474.937 87.84 475.945 88.944C477.001 90.048 478.489 90.6 480.409 90.6C482.521 90.6 484.321 90 485.809 88.8L487.969 93.768ZM553.366 57.84L539.11 96H532.486L521.47 67.056L510.31 96H503.686L489.502 57.84H496.054L507.142 88.224L518.662 57.84H524.494L535.798 88.368L547.174 57.84H553.366ZM560.38 57.84H567.292V96H560.38V57.84ZM563.836 50.496C562.492 50.496 561.364 50.064 560.452 49.2C559.588 48.336 559.156 47.28 559.156 46.032C559.156 44.784 559.588 43.728 560.452 42.864C561.364 41.952 562.492 41.496 563.836 41.496C565.18 41.496 566.284 41.928 567.148 42.792C568.06 43.608 568.516 44.64 568.516 45.888C568.516 47.184 568.06 48.288 567.148 49.2C566.284 50.064 565.18 50.496 563.836 50.496ZM591.434 96.432C588.314 96.432 585.314 96.024 582.434 95.208C579.554 94.344 577.298 93.264 575.666 91.968L578.546 86.496C580.226 87.696 582.266 88.656 584.666 89.376C587.066 90.096 589.49 90.456 591.938 90.456C597.986 90.456 601.01 88.728 601.01 85.272C601.01 84.12 600.602 83.208 599.786 82.536C598.97 81.864 597.938 81.384 596.69 81.096C595.49 80.76 593.762 80.4 591.506 80.016C588.434 79.536 585.914 78.984 583.946 78.36C582.026 77.736 580.37 76.68 578.978 75.192C577.586 73.704 576.89 71.616 576.89 68.928C576.89 65.472 578.33 62.712 581.21 60.648C584.09 58.536 587.954 57.48 592.802 57.48C595.346 57.48 597.89 57.792 600.434 58.416C602.978 59.04 605.066 59.88 606.698 60.936L603.746 66.408C600.626 64.392 596.954 63.384 592.73 63.384C589.802 63.384 587.57 63.864 586.034 64.824C584.498 65.784 583.73 67.056 583.73 68.64C583.73 69.888 584.162 70.872 585.026 71.592C585.89 72.312 586.946 72.84 588.194 73.176C589.49 73.512 591.29 73.896 593.594 74.328C596.666 74.856 599.138 75.432 601.01 76.056C602.93 76.632 604.562 77.64 605.906 79.08C607.25 80.52 607.922 82.536 607.922 85.128C607.922 88.584 606.434 91.344 603.458 93.408C600.53 95.424 596.522 96.432 591.434 96.432ZM651.048 77.136C651.048 77.664 651 78.36 650.904 79.224H619.944C620.376 82.584 621.84 85.296 624.336 87.36C626.88 89.376 630.024 90.384 633.768 90.384C638.328 90.384 642 88.848 644.784 85.776L648.6 90.24C646.872 92.256 644.712 93.792 642.12 94.848C639.576 95.904 636.72 96.432 633.552 96.432C629.52 96.432 625.944 95.616 622.824 93.984C619.704 92.304 617.28 89.976 615.552 87C613.872 84.024 613.032 80.664 613.032 76.92C613.032 73.224 613.848 69.888 615.48 66.912C617.16 63.936 619.44 61.632 622.32 60C625.248 58.32 628.536 57.48 632.184 57.48C635.832 57.48 639.072 58.32 641.904 60C644.784 61.632 647.016 63.936 648.6 66.912C650.232 69.888 651.048 73.296 651.048 77.136ZM632.184 63.312C628.872 63.312 626.088 64.32 623.832 66.336C621.624 68.352 620.328 70.992 619.944 74.256H644.424C644.04 71.04 642.72 68.424 640.464 66.408C638.256 64.344 635.496 63.312 632.184 63.312Z" fill="#175CFF"/>
<path d="M155.763 0H14.6947C6.7 0 0 6.70132 0 14.6947V111.677C0 119.687 6.7 126.373 14.6947 126.373H44.0853V151.115L68.3107 124.451L83.0053 107.372C84.068 106.152 85.9187 106.008 87.1533 107.071C88.388 108.117 88.516 109.984 87.4693 111.203L74.424 126.373H155.763C163.772 126.373 170.457 119.687 170.457 111.677V14.6947C170.457 6.70132 163.772 0 155.763 0Z" fill="#175CFF"/>
<path d="M125.606 49.8432C123.966 49.8432 122.326 50.0058 120.718 50.3312C119.505 44.2765 115.581 39.1112 110.076 36.3152C104.569 33.5192 98.0837 33.4018 92.4783 35.9965C87.409 22.0245 71.9703 14.8125 57.9983 19.8845C44.0277 24.9552 36.8144 40.3952 41.885 54.3645C29.6477 54.7512 19.9797 64.8818 20.1637 77.1245C20.3477 89.3685 30.3144 99.2032 42.5597 99.2218H125.606C139.242 99.2218 150.297 88.1685 150.297 74.5325C150.297 60.8965 139.242 49.8432 125.606 49.8432Z" fill="white"/>
<path d="M49.0003 61.0326C47.4576 61.0326 46.2043 62.0566 46.2043 63.3179V77.0326C46.2043 78.2939 47.4576 79.3166 49.0003 79.3166C50.543 79.3166 51.7963 78.2939 51.7963 77.0326V63.3179C51.7963 62.0566 50.543 61.0326 49.0003 61.0326Z" fill="#175CFF"/>
<path d="M63.5921 47.319C62.0481 47.319 60.7961 48.343 60.7961 49.6044V90.7457C60.7961 92.007 62.0481 93.031 63.5921 93.031C65.1348 93.031 66.3881 92.007 66.3881 90.7457V49.6044C66.3881 48.343 65.1348 47.319 63.5921 47.319Z" fill="#175CFF"/>
<path d="M78.1839 54.1759C76.6399 54.1759 75.3879 55.1999 75.3879 56.4612V83.8892C75.3879 85.1505 76.6399 86.1745 78.1839 86.1745C79.7265 86.1745 80.9799 85.1505 80.9799 83.8892V56.4612C80.9799 55.1999 79.7265 54.1759 78.1839 54.1759Z" fill="#175CFF"/>
<path d="M92.7757 63.3184C91.2317 63.3184 89.9797 64.3424 89.9797 65.6037V74.7464C89.9797 76.0077 91.2317 77.0317 92.7757 77.0317C94.3184 77.0317 95.5717 76.0077 95.5717 74.7464V65.6037C95.5717 64.3424 94.3184 63.3184 92.7757 63.3184Z" fill="#175CFF"/>
<path d="M107.367 54.1759C105.824 54.1759 104.571 55.1999 104.571 56.4612V83.8892C104.571 85.1505 105.824 86.1745 107.367 86.1745C108.909 86.1745 110.163 85.1505 110.163 83.8892V56.4612C110.163 55.1999 108.909 54.1759 107.367 54.1759Z" fill="#175CFF"/>
<path d="M121.958 61.0326C120.415 61.0326 119.162 62.0566 119.162 63.3179V77.0326C119.162 78.2939 120.415 79.3166 121.958 79.3166C123.501 79.3166 124.754 78.2939 124.754 77.0326V63.3179C124.754 62.0566 123.501 61.0326 121.958 61.0326Z" fill="#175CFF"/>
</svg>

<svg width="652" height="152" fill="none" xmlns="http://www.w3.org/2000/svg"><path d="M233.184 96.432c-3.888 0-7.368-.84-10.44-2.52-3.024-1.68-5.4-3.984-7.128-6.912-1.728-2.976-2.592-6.336-2.592-10.08 0-3.744.864-7.08 2.592-10.008 1.728-2.976 4.104-5.28 7.128-6.912 3.072-1.68 6.552-2.52 10.44-2.52 3.456 0 6.528.696 9.216 2.088 2.736 1.392 4.848 3.408 6.336 6.048L243.48 69c-1.2-1.824-2.688-3.192-4.464-4.104-1.776-.912-3.744-1.368-5.904-1.368-2.496 0-4.752.552-6.768 1.656-1.968 1.104-3.528 2.688-4.68 4.752-1.104 2.016-1.656 4.344-1.656 6.984 0 2.688.552 5.064 1.656 7.128 1.152 2.016 2.712 3.576 4.68 4.68 2.016 1.104 4.272 1.656 6.768 1.656 2.16 0 4.128-.456 5.904-1.368 1.776-.912 3.264-2.28 4.464-4.104l5.256 3.312c-1.488 2.64-3.6 4.68-6.336 6.12-2.688 1.392-5.76 2.088-9.216 2.088zm40.282 0c-3.792 0-7.2-.84-10.224-2.52-3.024-1.68-5.4-3.984-7.128-6.912-1.68-2.976-2.52-6.336-2.52-10.08 0-3.744.84-7.08 2.52-10.008 1.728-2.976 4.104-5.28 7.128-6.912 3.024-1.68 6.432-2.52 10.224-2.52s7.176.84 10.152 2.52c3.024 1.632 5.376 3.936 7.056 6.912 1.728 2.928 2.592 6.264 2.592 10.008 0 3.744-.864 7.104-2.592 10.08-1.68 2.928-4.032 5.232-7.056 6.912-2.976 1.68-6.36 2.52-10.152 2.52zm0-6.048c2.448 0 4.632-.552 6.552-1.656a12.183 12.183 0 004.608-4.752c1.104-2.064 1.656-4.416 1.656-7.056 0-2.64-.552-4.968-1.656-6.984-1.104-2.064-2.64-3.648-4.608-4.752-1.92-1.104-4.104-1.656-6.552-1.656-2.448 0-4.656.552-6.624 1.656-1.92 1.104-3.456 2.688-4.608 4.752-1.104 2.016-1.656 4.344-1.656 6.984 0 2.64.552 4.992 1.656 7.056 1.152 2.016 2.688 3.6 4.608 4.752 1.968 1.104 4.176 1.656 6.624 1.656zm49.735-32.904c4.848 0 8.688 1.416 11.52 4.248 2.88 2.784 4.32 6.888 4.32 12.312V96h-6.912V74.832c0-3.696-.888-6.48-2.664-8.352-1.776-1.872-4.32-2.808-7.632-2.808-3.744 0-6.696 1.104-8.856 3.312-2.16 2.16-3.24 5.28-3.24 9.36V96h-6.912V57.84h6.624v5.76c1.392-1.968 3.264-3.48 5.616-4.536 2.4-1.056 5.112-1.584 8.136-1.584zm50.088 36.288c-1.008.864-2.256 1.536-3.744 2.016a16.443 16.443 0 01-4.608.648c-3.84 0-6.816-1.032-8.928-3.096-2.112-2.064-3.168-5.016-3.168-8.856V63.528h-6.48V57.84h6.48v-8.352h6.912v8.352h10.944v5.688h-10.944v20.664c0 2.064.504 3.648 1.512 4.752 1.056 1.104 2.544 1.656 4.464 1.656 2.112 0 3.912-.6 5.4-1.8l2.16 4.968zm22.253-36.288c5.28 0 9.312 1.296 12.096 3.888 2.832 2.592 4.248 6.456 4.248 11.592V96h-6.552v-5.04c-1.152 1.776-2.808 3.144-4.968 4.104-2.112.912-4.632 1.368-7.56 1.368-4.272 0-7.704-1.032-10.296-3.096-2.544-2.064-3.816-4.776-3.816-8.136 0-3.36 1.224-6.048 3.672-8.064 2.448-2.064 6.336-3.096 11.664-3.096h10.944v-1.368c0-2.976-.864-5.256-2.592-6.84-1.728-1.584-4.272-2.376-7.632-2.376-2.256 0-4.464.384-6.624 1.152-2.16.72-3.984 1.704-5.472 2.952l-2.88-5.184c1.968-1.584 4.32-2.784 7.056-3.6 2.736-.864 5.64-1.296 8.712-1.296zm-1.584 33.624c2.64 0 4.92-.576 6.84-1.728 1.92-1.2 3.312-2.88 4.176-5.04v-5.328h-10.656c-5.856 0-8.784 1.968-8.784 5.904 0 1.92.744 3.432 2.232 4.536 1.488 1.104 3.552 1.656 6.192 1.656zm47.562 5.328c-3.888 0-7.368-.84-10.44-2.52-3.024-1.68-5.4-3.984-7.128-6.912-1.728-2.976-2.592-6.336-2.592-10.08 0-3.744.864-7.08 2.592-10.008 1.728-2.976 4.104-5.28 7.128-6.912 3.072-1.68 6.552-2.52 10.44-2.52 3.456 0 6.528.696 9.216 2.088 2.736 1.392 4.848 3.408 6.336 6.048L451.816 69c-1.2-1.824-2.688-3.192-4.464-4.104-1.776-.912-3.744-1.368-5.904-1.368-2.496 0-4.752.552-6.768 1.656-1.968 1.104-3.528 2.688-4.68 4.752-1.104 2.016-1.656 4.344-1.656 6.984 0 2.688.552 5.064 1.656 7.128 1.152 2.016 2.712 3.576 4.68 4.68 2.016 1.104 4.272 1.656 6.768 1.656 2.16 0 4.128-.456 5.904-1.368 1.776-.912 3.264-2.28 4.464-4.104l5.256 3.312c-1.488 2.64-3.6 4.68-6.336 6.12-2.688 1.392-5.76 2.088-9.216 2.088zm46.449-2.664c-1.008.864-2.256 1.536-3.744 2.016a16.443 16.443 0 01-4.608.648c-3.84 0-6.816-1.032-8.928-3.096-2.112-2.064-3.168-5.016-3.168-8.856V63.528h-6.48V57.84h6.48v-8.352h6.912v8.352h10.944v5.688h-10.944v20.664c0 2.064.504 3.648 1.512 4.752 1.056 1.104 2.544 1.656 4.464 1.656 2.112 0 3.912-.6 5.4-1.8l2.16 4.968zm65.397-35.928L539.11 96h-6.624L521.47 67.056 510.31 96h-6.624l-14.184-38.16h6.552l11.088 30.384 11.52-30.384h5.832l11.304 30.528 11.376-30.528h6.192zm7.014 0h6.912V96h-6.912V57.84zm3.456-7.344c-1.344 0-2.472-.432-3.384-1.296-.864-.864-1.296-1.92-1.296-3.168 0-1.248.432-2.304 1.296-3.168.912-.912 2.04-1.368 3.384-1.368 1.344 0 2.448.432 3.312 1.296.912.816 1.368 1.848 1.368 3.096 0 1.296-.456 2.4-1.368 3.312-.864.864-1.968 1.296-3.312 1.296zm27.598 45.936c-3.12 0-6.12-.408-9-1.224-2.88-.864-5.136-1.944-6.768-3.24l2.88-5.472c1.68 1.2 3.72 2.16 6.12 2.88 2.4.72 4.824 1.08 7.272 1.08 6.048 0 9.072-1.728 9.072-5.184 0-1.152-.408-2.064-1.224-2.736-.816-.672-1.848-1.152-3.096-1.44-1.2-.336-2.928-.696-5.184-1.08-3.072-.48-5.592-1.032-7.56-1.656a11.62 11.62 0 01-4.968-3.168c-1.392-1.488-2.088-3.576-2.088-6.264 0-3.456 1.44-6.216 4.32-8.28 2.88-2.112 6.744-3.168 11.592-3.168 2.544 0 5.088.312 7.632.936 2.544.624 4.632 1.464 6.264 2.52l-2.952 5.472c-3.12-2.016-6.792-3.024-11.016-3.024-2.928 0-5.16.48-6.696 1.44-1.536.96-2.304 2.232-2.304 3.816 0 1.248.432 2.232 1.296 2.952.864.72 1.92 1.248 3.168 1.584 1.296.336 3.096.72 5.4 1.152 3.072.528 5.544 1.104 7.416 1.728 1.92.576 3.552 1.584 4.896 3.024 1.344 1.44 2.016 3.456 2.016 6.048 0 3.456-1.488 6.216-4.464 8.28-2.928 2.016-6.936 3.024-12.024 3.024zm59.614-19.296c0 .528-.048 1.224-.144 2.088h-30.96c.432 3.36 1.896 6.072 4.392 8.136 2.544 2.016 5.688 3.024 9.432 3.024 4.56 0 8.232-1.536 11.016-4.608l3.816 4.464c-1.728 2.016-3.888 3.552-6.48 4.608-2.544 1.056-5.4 1.584-8.568 1.584-4.032 0-7.608-.816-10.728-2.448-3.12-1.68-5.544-4.008-7.272-6.984-1.68-2.976-2.52-6.336-2.52-10.08 0-3.696.816-7.032 2.448-10.008 1.68-2.976 3.96-5.28 6.84-6.912 2.928-1.68 6.216-2.52 9.864-2.52 3.648 0 6.888.84 9.72 2.52 2.88 1.632 5.112 3.936 6.696 6.912 1.632 2.976 2.448 6.384 2.448 10.224zm-18.864-13.824c-3.312 0-6.096 1.008-8.352 3.024-2.208 2.016-3.504 4.656-3.888 7.92h24.48c-.384-3.216-1.704-5.832-3.96-7.848-2.208-2.064-4.968-3.096-8.28-3.096zM155.763 0H14.695C6.7 0 0 6.701 0 14.695v96.982c0 8.01 6.7 14.696 14.695 14.696h29.39v24.742l24.226-26.664 14.694-17.079a2.948 2.948 0 014.148-.301c1.235 1.046 1.363 2.913.316 4.132l-13.045 15.17h81.339c8.009 0 14.694-6.686 14.694-14.696V14.695C170.457 6.7 163.772 0 155.763 0z" fill="#175CFF"/><path d="M125.606 49.843c-1.64 0-3.28.163-4.888.488a20.163 20.163 0 00-28.24-14.335C87.41 22.025 71.97 14.813 57.998 19.885c-13.97 5.07-21.184 20.51-16.113 34.48-12.237.386-21.905 10.517-21.721 22.76.184 12.243 10.15 22.078 22.396 22.097h83.046c13.636 0 24.691-11.053 24.691-24.69 0-13.635-11.055-24.689-24.691-24.689z" fill="#fff"/><path d="M49 61.033c-1.542 0-2.796 1.024-2.796 2.285v13.715c0 1.26 1.254 2.284 2.796 2.284 1.543 0 2.796-1.023 2.796-2.284V63.318c0-1.261-1.253-2.285-2.796-2.285zM63.592 47.319c-1.544 0-2.796 1.024-2.796 2.285v41.142c0 1.261 1.252 2.285 2.796 2.285 1.543 0 2.796-1.024 2.796-2.285V49.604c0-1.261-1.253-2.285-2.796-2.285zM78.184 54.176c-1.544 0-2.796 1.024-2.796 2.285V83.89c0 1.261 1.252 2.285 2.796 2.285 1.543 0 2.796-1.024 2.796-2.285V56.461c0-1.261-1.254-2.285-2.796-2.285zM92.776 63.318c-1.544 0-2.796 1.024-2.796 2.286v9.142c0 1.262 1.252 2.286 2.796 2.286 1.542 0 2.796-1.024 2.796-2.286v-9.142c0-1.262-1.254-2.286-2.796-2.286zM107.367 54.176c-1.543 0-2.796 1.024-2.796 2.285V83.89c0 1.261 1.253 2.285 2.796 2.285 1.542 0 2.796-1.024 2.796-2.285V56.461c0-1.261-1.254-2.285-2.796-2.285zM121.958 61.033c-1.543 0-2.796 1.024-2.796 2.285v13.715c0 1.26 1.253 2.284 2.796 2.284s2.796-1.023 2.796-2.284V63.318c0-1.261-1.253-2.285-2.796-2.285z" fill="#175CFF"/></svg>
